X:1
T:I Love to Hear the Story, 76.76 D
T:I Love to Hear the Story, 76.76 D
T:Henry John Gauntlett (1805-1876)
T:Public Domain Courtesy of the Cyber Hymnal™
C:Henry John Gauntlett (1805-1876)
Z:Public Domain
Z:Courtesy of the Cyber Hymnal™
%%score ( 1 2 ) ( 3 4 )
L:1/8
Q:1/4=105
M:4/4
K:G
V:1 treble 
V:2 treble 
V:3 bass 
V:4 bass 
V:1
 [DGB]2 | B3 B (BA) Bc | B2 A4 [Fe]2 | d2 (cB) [DGA]2 (Bc) | [DGB]6 [EGB]2 | c3 B (BA) (AG) | %6
 (FE) [CD]4 [Fe]2 x2 | [DGd]2 (cB) [DGB]2 [CDFA]2 | [B,DG]6 (EF)!fine! | G2 (FE) A2 (Bc) | %10
 c2 B4 [EGB]2 | B2 (AG) F2 E2 | [^DB]6 [DFB]2 | [GBe]2 [GBd]2 (d^c) de | A3 z G [DF]2 [DFd]2 | %15
 d^c (de) [EGAc]2 [EGAc]2 | [FAd]6!D.C.! |] %17
V:2
 x2 | [DG]4 [EG]4 | [EG]6 x2 | [DG]4 [DF]2 x2 | x8 | [EG]4 E2 E2 | C2 x8 | x2 [DG]2 x4 | x8 | x8 | %10
 x8 | E4 x4 | x8 | x4 [EG]2 [EA]2 | D2 E2 x5 | [GB]2 [GB]2 x4 | x6 |] %17
V:3
 G,2 | G,4 E,4 | C,4 C,2 [C,A,]2 | B,,2 G,,2 D,2 D,,2 | G,,6 E,2 | A,,4 C,4 | %6
 (A,G,) z2 [C,A,]2 x4 | B,,2 G,,2 D,2 D,,2 | G,,6 (E,F,) | G,2 (F,E,) A,2 (B,C) | C2 B,4 E,2 | %11
 C,4 [C,A,]4 | [B,,F,]6 B,2 | G,2 E,2 A,2 G,2 | A,4 [D,A,]2 B,,2 x | G,,2 E,,2 A,,2 A,,2 | %16
 [D,,F,]6 |] %17
V:4
 x2 | x8 | x8 | x8 | x8 | x8 | D,4 (F,4 D,2) | x8 | x8 | x8 | x8 | x8 | x8 | x8 | (F,2 ^C,2) x5 | %15
 x8 | x6 |] %17

